X: 41959
T: Wallop Away The Wattle, O!
R: polka
M: 2/4
K: Gmajor
|:B/c/|dd/e/ d/c/B/A/|GD GG/A/|BB B/A/G/A/|BA AB/c/|
dg/e/ d/c/B/A/|GD GG/A/|B/d/B/G/ A/B/A/F/|GB G:|
|:B/d/|gg/a/ bg|f/g/a/f/ de/f/|g/f/g/a/ bg|f/g/a/f/ d2|
d/c/B/c/ dg|B/A/B/c/ dg|B/d/B/G/ A/B/A/F/|GB G:|

